polaris-icons/icons/LiveFilledIcon.svg

<svg xmlns="http://www.w3.org/2000/svg" viewBox="0 0 20 20"><path d="M5.27295 6.28033C3.2227 8.33058 3.2227 11.6547 5.27295 13.705C5.56584 13.9978 5.56584 14.4727 5.27295 14.7656C4.98006 15.0585 4.50518 15.0585 4.21229 14.7656C1.57625 12.1296 1.57625 7.85571 4.21229 5.21967C4.50518 4.92678 4.98006 4.92678 5.27295 5.21967C5.56584 5.51256 5.56584 5.98744 5.27295 6.28033Z"/>
<path d="M9.99999 7.75C8.75735 7.75 7.74999 8.75735 7.74999 10C7.74999 11.2426 8.75735 12.25 9.99999 12.25C11.2426 12.25 12.25 11.2426 12.25 10C12.25 8.75735 11.2426 7.75 9.99999 7.75Z"/>
<path d="M14.7124 13.705C16.7626 11.6547 16.7626 8.33058 14.7124 6.28033C14.4195 5.98744 14.4195 5.51256 14.7124 5.21967C15.0053 4.92678 15.4801 4.92678 15.773 5.21967C18.4091 7.85571 18.4091 12.1296 15.773 14.7656C15.4801 15.0585 15.0053 15.0585 14.7124 14.7656C14.4195 14.4727 14.4195 13.9978 14.7124 13.705Z"/>
<path d="M7.2907 8.0481C6.21676 9.12204 6.21676 10.8632 7.29071 11.9372C7.5836 12.2301 7.5836 12.705 7.29071 12.9978C6.99781 13.2907 6.52294 13.2907 6.23005 12.9978C4.57032 11.3381 4.57032 8.64717 6.23004 6.98744C6.52294 6.69454 6.99781 6.69454 7.2907 6.98744C7.5836 7.28033 7.5836 7.7552 7.2907 8.0481Z"/>
<path d="M12.6945 11.9372C13.7684 10.8632 13.7684 9.12204 12.6945 8.0481C12.4016 7.7552 12.4016 7.28033 12.6945 6.98744C12.9874 6.69454 13.4623 6.69454 13.7552 6.98744C15.4149 8.64717 15.4149 11.3381 13.7552 12.9978C13.4623 13.2907 12.9874 13.2907 12.6945 12.9978C12.4016 12.705 12.4016 12.2301 12.6945 11.9372Z"/>
</svg>

<svg xmlns="http://www.w3.org/2000/svg" viewBox="0 0 20 20"><path d="M5.273 6.28c-2.05 2.05-2.05 5.375 0 7.425.293.293.293.768 0 1.06-.293.293-.768.293-1.06 0-2.637-2.635-2.637-6.91 0-9.545.292-.293.767-.293 1.06 0 .293.293.293.767 0 1.06Z"/><path d="M10 7.75c-1.243 0-2.25 1.007-2.25 2.25s1.007 2.25 2.25 2.25 2.25-1.007 2.25-2.25-1.007-2.25-2.25-2.25Z"/><path d="M14.712 13.705c2.05-2.05 2.05-5.374 0-7.425-.293-.293-.293-.767 0-1.06.293-.293.768-.293 1.061 0 2.636 2.636 2.636 6.91 0 9.546-.293.293-.768.293-1.06 0-.293-.293-.293-.768 0-1.061Z"/><path d="M7.29 8.048c-1.073 1.074-1.073 2.815 0 3.89.294.292.294.767 0 1.06-.292.293-.767.293-1.06 0-1.66-1.66-1.66-4.35 0-6.01.293-.293.768-.293 1.06 0 .294.292.294.767 0 1.06Z"/><path d="M12.694 11.937c1.074-1.074 1.074-2.815 0-3.889-.292-.293-.292-.768 0-1.06.293-.293.768-.293 1.061 0 1.66 1.66 1.66 4.35 0 6.01-.293.293-.768.293-1.06 0-.293-.293-.293-.768 0-1.06Z"/></svg>
